SVG_Azure_Grouped/Management/Azure Lighthouse.svg

<?xml version="1.0" encoding="UTF-8" standalone="no"?>
<!-- Generated by Microsoft Visio, SVG Export Azure Lighthouse.svg Page-1 -->

<svg
   xmlns:dc="http://purl.org/dc/elements/1.1/"
   xmlns:cc="http://creativecommons.org/ns#"
   xmlns:rdf="http://www.w3.org/1999/02/22-rdf-syntax-ns#"
   xmlns:svg="http://www.w3.org/2000/svg"
   xmlns="http://www.w3.org/2000/svg"
   xmlns:sodipodi="http://sodipodi.sourceforge.net/DTD/sodipodi-0.dtd"
   xmlns:inkscape="http://www.inkscape.org/namespaces/inkscape"
   width="0.67383289in"
   height="0.78735596in"
   viewBox="0 0 48.516152 56.68994"
   xml:space="preserve"
   class="st4"
   version="1.1"
   id="svg41"
   sodipodi:docname="Azure Lighthouse.svg"
   style="font-size:12px;overflow:visible;color-interpolation-filters:sRGB;fill:none;fill-rule:evenodd;stroke-linecap:square;stroke-miterlimit:3"
   inkscape:version="0.92.5 (2060ec1f9f, 2020-04-08)"><metadata
   id="metadata45"><rdf:RDF><cc:Work
       rdf:about=""><dc:format>image/svg+xml</dc:format><dc:type
         rdf:resource="http://purl.org/dc/dcmitype/StillImage" /></cc:Work></rdf:RDF></metadata><sodipodi:namedview
   pagecolor="#ffffff"
   bordercolor="#666666"
   borderopacity="1"
   objecttolerance="10"
   gridtolerance="10"
   guidetolerance="10"
   inkscape:pageopacity="0"
   inkscape:pageshadow="2"
   inkscape:window-width="640"
   inkscape:window-height="480"
   id="namedview43"
   showgrid="false"
   inkscape:zoom="1.4193119"
   inkscape:cx="32.343445"
   inkscape:cy="37.786193"
   inkscape:window-x="0"
   inkscape:window-y="0"
   inkscape:window-maximized="0"
   inkscape:current-layer="svg41" />
	<style
   type="text/css"
   id="style2">
	<![CDATA[
		.st1 {fill:url(#grad0-6);stroke:none;stroke-linecap:butt;stroke-width:34}
		.st2 {fill:#83b9f9;stroke:none;stroke-linecap:butt;stroke-width:34}
		.st3 {fill:#0078d4;stroke:none;stroke-linecap:butt;stroke-width:34}
		.st4 {fill:none;fill-rule:evenodd;font-size:12px;overflow:visible;stroke-linecap:square;stroke-miterlimit:3}
	]]>
	</style>

	<defs
   id="Patterns_And_Gradients">
		<linearGradient
   id="grad0-6"
   x1="-0.15627577"
   y1="83.689125"
   x2="46.32485"
   y2="83.689125"
   gradientTransform="scale(1.0437836,0.95805301)"
   gradientUnits="userSpaceOnUse">
			<stop
   offset="0"
   stop-color="#0078d4"
   stop-opacity="1"
   id="stop4" />
			<stop
   offset="0.16"
   stop-color="#1380da"
   stop-opacity="1"
   id="stop6" />
			<stop
   offset="0.53"
   stop-color="#3c91e5"
   stop-opacity="1"
   id="stop8" />
			<stop
   offset="0.82"
   stop-color="#559cec"
   stop-opacity="1"
   id="stop10" />
			<stop
   offset="1"
   stop-color="#5ea0ef"
   stop-opacity="1"
   id="stop12" />
		</linearGradient>
	</defs>
	<g
   id="g39"
   transform="translate(-33.998882,-34.004359)">
		<title
   id="title16">Page-1</title>
		<g
   id="group12699-1"
   transform="translate(34.1619,-34.0157)">
			<title
   id="title18">Azure Lighthouse.12699</title>
			<g
   id="group12700-2">
				<title
   id="title20">Icon471-AzureLighthouse</title>
				<g
   id="shape12701-3">
					<title
   id="title22">Sheet.12701</title>
					<path
   d="M 48.19,122.21 36.88,92.38 A 0.88189,0.89634 -180 0 0 36.061102,91.803782 L 28,91.8 v -7.11 a 4.09449,4.16158 -180 1 0 -8.16,0 v 7.11 h -7.27 a 0.913386,0.928352 -180 0 0 -0.850394,0.576218 L 0,122.21 a 1.73228,1.76067 -180 0 0 1.42,2.5 h 45.35 a 1.73228,1.76067 -180 0 0 1.42,-2.5 z"
   class="st1"
   id="path24"
   inkscape:connector-curvature="0"
   style="fill:url(#grad0-6);stroke:none;stroke-width:34;stroke-linecap:butt" />
				</g>
				<g
   id="shape12702-7"
   transform="translate(1.41732)">
					<title
   id="title27">Sheet.12702</title>
					<path
   d="M 4.94,105.95 32.13,91.8 h 2.36 a 0.88189,0.89634 0 0 1 0.850394,0.60823 L 37.95,99.29 0,118.75 Z m 19.44,18.69 18.9,-11.52 3.43,9.09 a 1.76378,1.79268 0 0 1 -1.45,2.5 z"
   class="st2"
   id="path29"
   inkscape:connector-curvature="0"
   style="fill:#83b9f9;stroke:none;stroke-width:34;stroke-linecap:butt" />
				</g>
				<g
   id="shape12703-9"
   transform="translate(10.4567,-32.9085)">
					<title
   id="title32">Sheet.12703</title>
					<path
   d="m 13.23,100.96 -12.98,7.65 a 0.503937,0.512194 -180 0 0 -0.251969,0.44817 L 0,110.24 a 0.503937,0.512194 -180 0 0 0.503937,0.51219 L 2.46,110.75 v 13.96 h 2.45 v -13.96 h 17.14 v 13.96 h 2.42 v -13.96 h 1.99 a 0.503937,0.512194 -180 0 0 0.503937,-0.51219 L 26.96,109.05 a 0.503937,0.512194 -180 0 0 -0.251969,-0.44817 L 13.64,100.96 a 0.692913,0.704267 -180 0 0 -0.409449,0 z"
   class="st3"
   id="path34"
   inkscape:connector-curvature="0"
   style="fill:#0078d4;stroke:none;stroke-width:34;stroke-linecap:butt" />
				</g>
			</g>
		</g>
	</g>
</svg>

<?xml version="1.0" encoding="UTF-8" standalone="no"?>
<!DOCTYPE svg PUBLIC "-//W3C//DTD SVG 1.1//EN" "http://www.w3.org/Graphics/SVG/1.1/DTD/svg11.dtd">
<!-- Generated by Microsoft Visio, SVG Export Azure Lighthouse.svg Page-1 -->
<svg xmlns="http://www.w3.org/2000/svg" xmlns:xlink="http://www.w3.org/1999/xlink" xmlns:ev="http://www.w3.org/2001/xml-events"
		width="1.61823in" height="1.73206in" viewBox="0 0 116.513 124.709" xml:space="preserve" color-interpolation-filters="sRGB"
		class="st4">
	<style type="text/css">
	<![CDATA[
		.st1 {fill:url(#grad0-6);stroke:none;stroke-linecap:butt;stroke-width:34}
		.st2 {fill:#83b9f9;stroke:none;stroke-linecap:butt;stroke-width:34}
		.st3 {fill:#0078d4;stroke:none;stroke-linecap:butt;stroke-width:34}
		.st4 {fill:none;fill-rule:evenodd;font-size:12px;overflow:visible;stroke-linecap:square;stroke-miterlimit:3}
	]]>
	</style>

	<defs id="Patterns_And_Gradients">
		<linearGradient id="grad0-6" x1="0" y1="0" x2="1" y2="0" gradientTransform="rotate(-90 0.5 0.5)">
			<stop offset="0" stop-color="#0078d4" stop-opacity="1"/>
			<stop offset="0.16" stop-color="#1380da" stop-opacity="1"/>
			<stop offset="0.53" stop-color="#3c91e5" stop-opacity="1"/>
			<stop offset="0.82" stop-color="#559cec" stop-opacity="1"/>
			<stop offset="1" stop-color="#5ea0ef" stop-opacity="1"/>
		</linearGradient>
	</defs>
	<g>
		<title>Page-1</title>
		<g id="group12406-1" transform="translate(34.1619,-34.0157)">
			<title>Azure Lighthouse.12406</title>
			<g id="group12407-2">
				<title>Icon471-AzureLighthouse</title>
				<g id="shape12408-3">
					<title>Sheet.12408</title>
					<path d="M48.19 122.21 L36.88 92.38 a0.88189 0.89634 -180 0 0 -0.818898 -0.576218 L28 91.8 L28 84.69 A4.09449
								 4.16158 -180 1 0 19.84 84.69 L19.84 91.8 L12.57 91.8 a0.913386 0.928352 -180 0 0 -0.850394 0.576218
								 L0 122.21 A1.73228 1.76067 -180 0 0 1.42 124.71 L46.77 124.71 A1.73228 1.76067 -180 0 0 48.19 122.21
								 Z" class="st1"/>
				</g>
				<g id="shape12409-7" transform="translate(1.41732,0)">
					<title>Sheet.12409</title>
					<path d="M4.94 105.95 L32.13 91.8 L34.49 91.8 a0.88189 0.89634 0 0 1 0.850394 0.60823 L37.95 99.29 L0 118.75
								 L4.94 105.95 ZM24.38 124.64 L43.28 113.12 L46.71 122.21 A1.76378 1.79268 0 0 1 45.26 124.71 L24.38
								 124.64 Z" class="st2"/>
				</g>
				<g id="shape12410-9" transform="translate(10.4567,-32.9085)">
					<title>Sheet.12410</title>
					<path d="M13.23 100.96 L0.25 108.61 a0.503937 0.512194 -180 0 0 -0.251969 0.44817 L0 110.24 a0.503937 0.512194
								 -180 0 0 0.503937 0.512194 L2.46 110.75 L2.46 124.71 L4.91 124.71 L4.91 110.75 L22.05 110.75 L22.05
								 124.71 L24.47 124.71 L24.47 110.75 L26.46 110.75 a0.503937 0.512194 -180 0 0 0.503937 -0.512194
								 L26.96 109.05 a0.503937 0.512194 -180 0 0 -0.251969 -0.44817 L13.64 100.96 a0.692913 0.704267 -180
								 0 0 -0.409449 2.84217E-14 Z" class="st3"/>
				</g>
			</g>
		</g>
	</g>
</svg>
